F[BALLADE
CUT[Der Hammerschmiedssohn
    Susanna sprang zum Thor hinaus,]
CNR[Susanna sprang zum Thor hinaus,]
REG[Mitteleuropa, Deutschland (BRD) , Rheinland, Siebengebirge]
SRC[4, S. 351
    1864 gedruckt]
KEY[Q0088  08 Eb 4/4]
MEL[-5_  1_3_5_67  +1_765_
    5_  +1__5__  +1__6__  5_543_
    34  5_5_6_35  54321_
    2_  3__6__  5__3_5_  5_4_2_-7_  1__0_ //] >>
FCT[Ballade, Verfuehrung, Schwangerschaft, Mord]
